X:19
T:Amanda's Reel
C:Kenny Smith 
N: Arranged by Adam Steffey
R:bluegrass
L:1/8
Q:1/4=240
M:4/4
K:G
B,A,|: "G"G,B, D^F EF GA | BG Ac BG EG | "Em"DE EG ED B,C | "D"DB, EC DB, (3A,B,A, | 
|"G"G,B, D^F EF GA | BG Ac BG EG | "Em"DE EG ED B,C | "D"D^F EF GE DB, |
| "G"G,B, D^F EF GA | BG Ac BG EG | "Em"DE EG ED B,C | "D"D2 CD DE D2 |
|"C"c2 Bc E2 cc | zc Bc DE ^FD | "C"E^F GB "D"AG EF |1 G2 GG G2 B,A, :|2 G2 GG GD ^FE |]
| "D"D2 A2 GA AB | AB cB AG E^F | "C"GE ^FE DA, B,E | "G"DB, G,B, D^F EF |
| "D"D2 A2 GA AB | Ac BA dB Ac | "C"BA GB AG EG | {D}"Em"EE EG ED EG | 
|"D"D2 A2 GA AB | AB cB AG EG | "C"^FE DB, CE DB, | "G"(3A,B,A, G,6 | 
|"C"c2 Bc E2 c2 | zc Bc DE ^FD | "C"E^F GB "D"AG EF | "G"G4 G4 || 

